public/images/logo.svg

<svg height="34.844" preserveAspectRatio="xMidYMid" viewBox="0 0 147.438 34.844" width="147.438" xmlns="http://www.w3.org/2000/svg"><g fill-rule="evenodd"><path d="m.479 34.377h4.91c.364 0 .607-.113.728-.34l7.639-12.279c.04-.064.1-.097.182-.097.08 0 .141.033.182.097l7.578 12.279c.121.227.364.34.728.34h4.85c.323 0 .485-.113.485-.34 0-.097-.021-.177-.061-.242l-10.488-16.21c-.041-.098-.041-.195 0-.292l10.488-16.307c.081-.161.081-.299 0-.412s-.223-.17-.424-.17h-4.911c-.364 0-.606.113-.728.339l-7.517 12.279c-.041.066-.102.097-.182.097-.082 0-.142-.031-.182-.097l-7.639-12.279c-.121-.226-.364-.339-.728-.339h-4.91c-.324 0-.485.113-.485.339 0 .098.019.179.06.243l10.489 16.259c.08.097.08.194 0 .291l-10.489 16.259c-.081.162-.081.299 0 .412.081.114.222.17.425.17z" fill="#719367"/><path d="m141.516 20.642h-6.366c-.405 0-.606-.161-.606-.485v-3.009c0-.323.201-.486.606-.486h11.822c.404 0 .606.163.606.486v7.571c0 3.139-1.162 5.598-3.486 7.377-2.324 1.78-5.447 2.669-9.366 2.669-3.841 0-6.933-.898-9.276-2.693-2.345-1.796-3.517-4.166-3.517-7.11v-15.143c0-2.944 1.172-5.314 3.517-7.11 2.343-1.796 5.435-2.694 9.276-2.694 2.546 0 4.789.397 6.729 1.19s3.445 1.917 4.517 3.373c1.07 1.456 1.606 3.106 1.606 4.95v1.31c0 .324-.202.486-.606.486h-4.607c-.405 0-.607-.162-.607-.486v-1.31c0-1.618-.636-2.936-1.909-3.955-1.274-1.02-2.982-1.529-5.123-1.529-2.102 0-3.8.526-5.093 1.577-1.294 1.052-1.94 2.419-1.94 4.101v15.337c0 1.682.656 3.05 1.97 4.101 1.313 1.052 3.041 1.577 5.184 1.577 2.101 0 3.779-.485 5.032-1.456 1.252-.971 1.879-2.281 1.879-3.931v-4.514c0-.129-.081-.194-.242-.194zm-25.705 13.735h-4.729c-.324 0-.546-.129-.667-.388l-7.033-14.463c-.041-.097-.121-.146-.242-.146h-6.487c-.162 0-.243.065-.243.194v14.318c0 .324-.203.485-.606.485h-4.608c-.404 0-.606-.161-.606-.485v-33.003c0-.323.202-.485.606-.485h13.581c3.395 0 6.123.89 8.184 2.669 2.062 1.78 3.092 4.109 3.092 6.989 0 2.168-.627 4.028-1.879 5.581-1.254 1.553-2.971 2.621-5.154 3.203-.121.033-.162.114-.121.243l7.397 14.706.06.194c0 .259-.182.388-.545.388zm-5.578-24.267c0-1.714-.566-3.089-1.698-4.125-1.132-1.035-2.647-1.553-4.547-1.553h-7.335c-.162 0-.243.065-.243.194v10.872c0 .129.081.194.243.194h7.335c1.859 0 3.365-.51 4.517-1.529s1.728-2.37 1.728-4.053zm-52.593 9.998c.99 1.359 1.485 3.009 1.485 4.951.04 2.977-1.071 5.274-3.334 6.891-2.264 1.619-5.255 2.427-8.973 2.427h-12.61c-.405 0-.607-.161-.607-.485v-33.003c0-.323.202-.485.607-.485h11.943c3.92 0 6.992.769 9.215 2.305 2.223 1.537 3.335 3.778 3.335 6.722 0 3.462-1.779 5.872-5.335 7.231-.203.097-.203.179 0 .243 1.858.777 3.283 1.844 4.274 3.203zm-6.487-14.244c-1.193-.954-2.84-1.432-4.941-1.432h-6.548c-.162 0-.242.065-.242.194v10.241c0 .129.08.194.242.194h6.548c2.101 0 3.748-.461 4.941-1.383 1.192-.923 1.788-2.192 1.788-3.81 0-1.715-.596-3.05-1.788-4.004zm.333 14.463c-1.212-1.051-2.87-1.578-4.971-1.578h-6.851c-.162 0-.242.066-.242.194v11.163c0 .13.08.194.242.194h6.912c2.101 0 3.748-.509 4.941-1.529 1.191-1.019 1.788-2.418 1.788-4.198 0-1.779-.606-3.195-1.819-4.246z" fill="#010101"/><path d="m64.844 34.844v-4.782h21.468v4.782zm0-20.157h21.468v4.813h-21.468zm0-14.374h21.468v4.781h-21.468z"/></g></svg>

<svg xmlns="http://www.w3.org/2000/svg" xmlns:xlink="http://www.w3.org/1999/xlink" preserveAspectRatio="xMidYMid" width="147.438" height="34.844" viewBox="0 0 147.438 34.844">
  <defs>
    <style>
      .cls-1 {
        fill: #719367;
      }

      .cls-1, .cls-2, .cls-3 {
        fill-rule: evenodd;
      }

      .cls-2 {
        fill: #010101;
      }

      .cls-3 {
        fill: #000;
      }
    </style>
  </defs>
  <g>
    <path d="M0.479,34.377 L5.389,34.377 C5.753,34.377 5.996,34.264 6.117,34.037 L13.756,21.758 C13.796,21.694 13.856,21.661 13.938,21.661 C14.018,21.661 14.079,21.694 14.120,21.758 L21.698,34.037 C21.819,34.264 22.062,34.377 22.426,34.377 L27.276,34.377 C27.599,34.377 27.761,34.264 27.761,34.037 C27.761,33.940 27.740,33.860 27.700,33.795 L17.212,17.585 C17.171,17.487 17.171,17.390 17.212,17.293 L27.700,0.986 C27.781,0.825 27.781,0.687 27.700,0.574 C27.619,0.461 27.477,0.404 27.276,0.404 L22.365,0.404 C22.001,0.404 21.759,0.517 21.637,0.743 L14.120,13.022 C14.079,13.088 14.018,13.119 13.938,13.119 C13.856,13.119 13.796,13.088 13.756,13.022 L6.117,0.743 C5.996,0.517 5.753,0.404 5.389,0.404 L0.479,0.404 C0.155,0.404 -0.006,0.517 -0.006,0.743 C-0.006,0.841 0.013,0.922 0.054,0.986 L10.543,17.245 C10.623,17.342 10.623,17.439 10.543,17.536 L0.054,33.795 C-0.027,33.957 -0.027,34.094 0.054,34.207 C0.135,34.321 0.276,34.377 0.479,34.377 L0.479,34.377 Z" class="cls-1"/>
    <path d="M141.516,20.642 L135.150,20.642 C134.745,20.642 134.544,20.481 134.544,20.157 L134.544,17.148 C134.544,16.825 134.745,16.662 135.150,16.662 L146.972,16.662 C147.376,16.662 147.578,16.825 147.578,17.148 L147.578,24.719 C147.578,27.858 146.416,30.317 144.092,32.096 C141.768,33.876 138.645,34.765 134.726,34.765 C130.885,34.765 127.793,33.867 125.450,32.072 C123.105,30.276 121.933,27.906 121.933,24.962 L121.933,9.819 C121.933,6.875 123.105,4.505 125.450,2.709 C127.793,0.913 130.885,0.015 134.726,0.015 C137.272,0.015 139.515,0.412 141.455,1.205 C143.395,1.998 144.900,3.122 145.972,4.578 C147.042,6.034 147.578,7.684 147.578,9.528 L147.578,10.838 C147.578,11.162 147.376,11.324 146.972,11.324 L142.365,11.324 C141.960,11.324 141.758,11.162 141.758,10.838 L141.758,9.528 C141.758,7.910 141.122,6.592 139.849,5.573 C138.575,4.553 136.867,4.044 134.726,4.044 C132.624,4.044 130.926,4.570 129.633,5.621 C128.339,6.673 127.693,8.040 127.693,9.722 L127.693,25.059 C127.693,26.741 128.349,28.109 129.663,29.160 C130.976,30.212 132.704,30.737 134.847,30.737 C136.948,30.737 138.626,30.252 139.879,29.281 C141.131,28.310 141.758,27.000 141.758,25.350 L141.758,20.836 C141.758,20.707 141.677,20.642 141.516,20.642 ZM115.811,34.377 L111.082,34.377 C110.758,34.377 110.536,34.248 110.415,33.989 L103.382,19.526 C103.341,19.429 103.261,19.380 103.140,19.380 L96.653,19.380 C96.491,19.380 96.410,19.445 96.410,19.574 L96.410,33.892 C96.410,34.216 96.207,34.377 95.804,34.377 L91.196,34.377 C90.792,34.377 90.590,34.216 90.590,33.892 L90.590,0.889 C90.590,0.566 90.792,0.404 91.196,0.404 L104.777,0.404 C108.172,0.404 110.900,1.294 112.961,3.073 C115.023,4.853 116.053,7.182 116.053,10.062 C116.053,12.230 115.426,14.090 114.174,15.643 C112.920,17.196 111.203,18.264 109.020,18.846 C108.899,18.879 108.858,18.960 108.899,19.089 L116.296,33.795 L116.356,33.989 C116.356,34.248 116.174,34.377 115.811,34.377 ZM110.233,10.110 C110.233,8.396 109.667,7.021 108.535,5.985 C107.403,4.950 105.888,4.432 103.988,4.432 L96.653,4.432 C96.491,4.432 96.410,4.497 96.410,4.626 L96.410,15.498 C96.410,15.627 96.491,15.692 96.653,15.692 L103.988,15.692 C105.847,15.692 107.353,15.182 108.505,14.163 C109.657,13.144 110.233,11.793 110.233,10.110 ZM57.640,20.108 C58.630,21.467 59.125,23.117 59.125,25.059 C59.165,28.036 58.054,30.333 55.791,31.950 C53.527,33.569 50.536,34.377 46.818,34.377 L34.208,34.377 C33.803,34.377 33.601,34.216 33.601,33.892 L33.601,0.889 C33.601,0.566 33.803,0.404 34.208,0.404 L46.151,0.404 C50.071,0.404 53.143,1.173 55.366,2.709 C57.589,4.246 58.701,6.487 58.701,9.431 C58.701,12.893 56.922,15.303 53.366,16.662 C53.163,16.759 53.163,16.841 53.366,16.905 C55.224,17.682 56.649,18.749 57.640,20.108 ZM51.153,5.864 C49.960,4.910 48.313,4.432 46.212,4.432 L39.664,4.432 C39.502,4.432 39.422,4.497 39.422,4.626 L39.422,14.867 C39.422,14.996 39.502,15.061 39.664,15.061 L46.212,15.061 C48.313,15.061 49.960,14.600 51.153,13.678 C52.345,12.755 52.941,11.486 52.941,9.868 C52.941,8.153 52.345,6.818 51.153,5.864 ZM51.486,20.327 C50.274,19.276 48.616,18.749 46.515,18.749 L39.664,18.749 C39.502,18.749 39.422,18.815 39.422,18.943 L39.422,30.106 C39.422,30.236 39.502,30.300 39.664,30.300 L46.576,30.300 C48.677,30.300 50.324,29.791 51.517,28.771 C52.708,27.752 53.305,26.353 53.305,24.573 C53.305,22.794 52.699,21.378 51.486,20.327 Z" class="cls-2"/>
    <path d="M64.844,34.844 L64.844,30.062 L86.312,30.062 L86.312,34.844 L64.844,34.844 ZM64.844,14.687 L86.312,14.687 L86.312,19.500 L64.844,19.500 L64.844,14.687 ZM64.844,0.313 L86.312,0.313 L86.312,5.094 L64.844,5.094 L64.844,0.313 Z" class="cls-3"/>
  </g>
</svg>
